project/images/official/editable/528.svg

<?xml version="1.0" encoding="UTF-8" standalone="no"?>
<svg
   width="59.564735pt"
   height="35.776272pt"
   viewBox="0 0 59.564736 35.776272"
   version="1.1"
   id="svg3513"
   xmlns="http://www.w3.org/2000/svg"
   xmlns:svg="http://www.w3.org/2000/svg">
  <defs
     id="defs3517" />
  <g
     id="layer2"
     style="display:inline"
     transform="scale(0.74036996,1)" />
  <g
     id="layer1">
    <rect
       style="display:inline;fill:#ffffff;stroke:none;stroke-width:0;stroke-linecap:square;stroke-miterlimit:4;stroke-dasharray:none;stroke-opacity:1"
       id="rect3621"
       width="59.564735"
       height="35.776272"
       x="0"
       y="8.8817842e-16" />
    <rect
       style="display:inline;fill:none;stroke:#000000;stroke-width:0.164154;stroke-linecap:square;stroke-miterlimit:4;stroke-dasharray:none;stroke-opacity:1"
       id="rect3621-4"
       width="58.666401"
       height="34.468613"
       x="0.486384"
       y="0.729029" />
  </g>
  <g
     id="layer3"
     style="display:inline">
    <g
       id="surface1-8"
       transform="translate(2.4214634,3.7542691)"
       style="display:inline">
      <path
         style="fill:#211e1e;fill-opacity:1;fill-rule:nonzero;stroke:none"
         d="m 10.667969,21.957031 c 1.992187,0.0078 3.582031,1.65625 3.574219,3.648438 0,1.964843 -1.574219,3.574219 -3.539063,3.597656 -2.007813,0.02734 -3.65625,-1.582031 -3.675781,-3.582031 -0.023438,-2.027344 1.617187,-3.675782 3.640625,-3.664063"
         id="path2803" />
      <path
         style="fill:#211e1e;fill-opacity:1;fill-rule:nonzero;stroke:none"
         d="m 42.171875,21.9375 c 2.015625,-0.01563 3.675781,1.582031 3.691406,3.589844 0.01563,2.027344 -1.640625,3.675781 -3.667969,3.667968 -2.015624,-0.0078 -3.640624,-1.660156 -3.617187,-3.675781 0.01953,-1.976562 1.625,-3.570312 3.59375,-3.582031"
         id="path2805" />
      <path
         style="fill:#211e1e;fill-opacity:1;fill-rule:nonzero;stroke:none"
         d="M 0.0703125,21.875 H 0.925781 v -5.308594 c 0,-0.04297 0.015625,-0.394531 0.015625,-0.429687 0.007813,-0.1875 0.015625,-0.457031 0.050782,-0.640625 0.027343,-0.1875 0.085937,-0.398438 0.144531,-0.578125 0.058593,-0.15625 0.121093,-0.34375 0.179687,-0.503907 L 1.480469,14 3.460938,8.011719 H 14.609375 V 21.3125 h 1.160156 V 7.25 H 3.460938 V 3.171875 c 0,-0.109375 0,-0.34375 0.00781,-0.445313 C 3.496094,2.46875 3.566406,2.222656 3.683594,1.992188 3.777344,1.820312 3.890625,1.660156 4.019531,1.511719 4.179688,1.34375 4.359375,1.179688 4.566406,1.078125 4.738281,0.984375 4.949219,0.933594 5.144531,0.90625 5.25,0.882812 5.445312,0.855469 5.5625,0.855469 h 45.390625 c 0.148437,0 0.324219,0.007812 0.472656,0.015625 0.273438,0.027344 0.542969,0.085937 0.792969,0.1875 0.300781,0.121094 0.566406,0.308594 0.8125,0.523437 0.207031,0.1875 0.394531,0.402344 0.5625,0.632813 0.113281,0.164062 0.214844,0.339844 0.300781,0.523437 0.08594,0.195313 0.152344,0.414063 0.171875,0.628907 0.01563,0.113281 0.02344,0.230468 0.02344,0.34375 V 21.875 h 0.878906 v 2.511719 h -8.246094 c -0.01953,-0.08203 -0.05859,-0.1875 -0.08594,-0.265625 -0.101563,-0.289063 -0.222657,-0.582032 -0.375,-0.851563 -0.410157,-0.71875 -1.027344,-1.300781 -1.746094,-1.71875 -0.714844,-0.410156 -1.519531,-0.652343 -2.347656,-0.640625 -0.78125,0.0078 -1.546875,0.253906 -2.230469,0.648438 -0.730469,0.425781 -1.363281,1.023437 -1.761719,1.769531 -0.128906,0.230469 -0.234375,0.496094 -0.324219,0.746094 -0.03516,0.09375 -0.07812,0.21875 -0.105468,0.3125 H 15.191406 c -0.02734,-0.08594 -0.07031,-0.195313 -0.09766,-0.28125 -0.109375,-0.289063 -0.246094,-0.597657 -0.402344,-0.863281 -0.40625,-0.710938 -1.015625,-1.289063 -1.722656,-1.691407 -0.695312,-0.402343 -1.488281,-0.632812 -2.285156,-0.632812 -0.902344,0 -1.777344,0.273437 -2.535156,0.761719 C 7.523438,22.082031 7,22.625 6.609375,23.261719 c -0.148437,0.253906 -0.277344,0.527343 -0.378906,0.808593 -0.03125,0.09375 -0.066407,0.222657 -0.09375,0.316407 H 0.0703125 V 21.875"
         id="path2807" />
      <path
         style="fill:#ffffff;fill-opacity:1;fill-rule:nonzero;stroke:none"
         d="m 10.726562,24.359375 c 0.640626,0.02734 1.109376,0.582031 1.117188,1.214844 0.0039,0.632812 -0.476562,1.171875 -1.109375,1.207031 -0.699219,0.03906 -1.296875,-0.5 -1.308594,-1.199219 -0.023437,-0.707031 0.597657,-1.25 1.300781,-1.222656"
         id="path2809" />
      <path
         style="fill:#ffffff;fill-opacity:1;fill-rule:nonzero;stroke:none"
         d="m 42.191406,24.367188 c 0.683594,-0.0078 1.273438,0.507812 1.277344,1.199218 0.0078,0.671875 -0.542969,1.210938 -1.222656,1.226563 -0.695313,0.01172 -1.292969,-0.519531 -1.292969,-1.226563 0,-0.667968 0.5625,-1.191406 1.238281,-1.199218"
         id="path2811" />
      <path
         style="fill:#ffffff;fill-opacity:1;fill-rule:nonzero;stroke:none"
         d="M 2.09375,15.378906 4.367188,9.085938 h 8.691406 v 6.292968 H 2.09375"
         id="path2813" />
      <path
         style="fill:#ffffff;fill-opacity:1;fill-rule:nonzero;stroke:none"
         d="M 27.390625,23.480469 V 7.25 h 7.976563 v 16.230469 h -7.976563"
         id="path2815" />
      <path
         style="fill:#ffffff;fill-opacity:1;fill-rule:nonzero;stroke:none"
         d="M 38.382812,15.378906 V 7.242188 h 12.5625 v 8.136718 h -12.5625"
         id="path2817" />
    </g>
  </g>
</svg>

<?xml version="1.0" encoding="UTF-8"?>
<svg xmlns="http://www.w3.org/2000/svg" xmlns:xlink="http://www.w3.org/1999/xlink" width="55pt" height="30pt" viewBox="0 0 55 30" version="1.1">
<g id="surface1">
<path style=" stroke:none;fill-rule:nonzero;fill:rgb(13.729858%,12.159729%,12.548828%);fill-opacity:1;" d="M 10.667969 21.957031 C 12.660156 21.964844 14.25 23.613281 14.242188 25.605469 C 14.242188 27.570312 12.667969 29.179688 10.703125 29.203125 C 8.695312 29.230469 7.046875 27.621094 7.027344 25.621094 C 7.003906 23.59375 8.644531 21.945312 10.667969 21.957031 "/>
<path style=" stroke:none;fill-rule:nonzero;fill:rgb(13.729858%,12.159729%,12.548828%);fill-opacity:1;" d="M 42.171875 21.9375 C 44.1875 21.921875 45.847656 23.519531 45.863281 25.527344 C 45.878906 27.554688 44.222656 29.203125 42.195312 29.195312 C 40.179688 29.1875 38.554688 27.535156 38.578125 25.519531 C 38.597656 23.542969 40.203125 21.949219 42.171875 21.9375 "/>
<path style=" stroke:none;fill-rule:nonzero;fill:rgb(13.729858%,12.159729%,12.548828%);fill-opacity:1;" d="M 0.0703125 21.875 L 0.925781 21.875 L 0.925781 16.566406 C 0.925781 16.523438 0.941406 16.171875 0.941406 16.136719 C 0.949219 15.949219 0.957031 15.679688 0.992188 15.496094 C 1.019531 15.308594 1.078125 15.097656 1.136719 14.917969 C 1.195312 14.761719 1.257812 14.574219 1.316406 14.414062 L 1.480469 14 L 3.460938 8.011719 L 14.609375 8.011719 L 14.609375 21.3125 L 15.769531 21.3125 L 15.769531 7.25 L 3.460938 7.25 L 3.460938 3.171875 C 3.460938 3.0625 3.460938 2.828125 3.46875 2.726562 C 3.496094 2.46875 3.566406 2.222656 3.683594 1.992188 C 3.777344 1.820312 3.890625 1.660156 4.019531 1.511719 C 4.179688 1.34375 4.359375 1.179688 4.566406 1.078125 C 4.738281 0.984375 4.949219 0.933594 5.144531 0.90625 C 5.25 0.882812 5.445312 0.855469 5.5625 0.855469 L 50.953125 0.855469 C 51.101562 0.855469 51.277344 0.863281 51.425781 0.871094 C 51.699219 0.898438 51.96875 0.957031 52.21875 1.058594 C 52.519531 1.179688 52.785156 1.367188 53.03125 1.582031 C 53.238281 1.769531 53.425781 1.984375 53.59375 2.214844 C 53.707031 2.378906 53.808594 2.554688 53.894531 2.738281 C 53.980469 2.933594 54.046875 3.152344 54.066406 3.367188 C 54.082031 3.480469 54.089844 3.597656 54.089844 3.710938 L 54.089844 21.875 L 54.96875 21.875 L 54.96875 24.386719 L 46.722656 24.386719 C 46.703125 24.304688 46.664062 24.199219 46.636719 24.121094 C 46.535156 23.832031 46.414062 23.539062 46.261719 23.269531 C 45.851562 22.550781 45.234375 21.96875 44.515625 21.550781 C 43.800781 21.140625 42.996094 20.898438 42.167969 20.910156 C 41.386719 20.917969 40.621094 21.164062 39.9375 21.558594 C 39.207031 21.984375 38.574219 22.582031 38.175781 23.328125 C 38.046875 23.558594 37.941406 23.824219 37.851562 24.074219 C 37.816406 24.167969 37.773438 24.292969 37.746094 24.386719 L 15.191406 24.386719 C 15.164062 24.300781 15.121094 24.191406 15.09375 24.105469 C 14.984375 23.816406 14.847656 23.507812 14.691406 23.242188 C 14.285156 22.53125 13.675781 21.953125 12.96875 21.550781 C 12.273438 21.148438 11.480469 20.917969 10.683594 20.917969 C 9.78125 20.917969 8.90625 21.191406 8.148438 21.679688 C 7.523438 22.082031 7 22.625 6.609375 23.261719 C 6.460938 23.515625 6.332031 23.789062 6.230469 24.070312 C 6.199219 24.164062 6.164062 24.292969 6.136719 24.386719 L 0.0703125 24.386719 L 0.0703125 21.875 "/>
<path style=" stroke:none;fill-rule:nonzero;fill:rgb(100%,100%,100%);fill-opacity:1;" d="M 10.726562 24.359375 C 11.367188 24.386719 11.835938 24.941406 11.84375 25.574219 C 11.847656 26.207031 11.367188 26.746094 10.734375 26.78125 C 10.035156 26.820312 9.4375 26.28125 9.425781 25.582031 C 9.402344 24.875 10.023438 24.332031 10.726562 24.359375 "/>
<path style=" stroke:none;fill-rule:nonzero;fill:rgb(100%,100%,100%);fill-opacity:1;" d="M 42.191406 24.367188 C 42.875 24.359375 43.464844 24.875 43.46875 25.566406 C 43.476562 26.238281 42.925781 26.777344 42.246094 26.792969 C 41.550781 26.804688 40.953125 26.273438 40.953125 25.566406 C 40.953125 24.898438 41.515625 24.375 42.191406 24.367188 "/>
<path style=" stroke:none;fill-rule:nonzero;fill:rgb(100%,100%,100%);fill-opacity:1;" d="M 2.09375 15.378906 L 4.367188 9.085938 L 13.058594 9.085938 L 13.058594 15.378906 L 2.09375 15.378906 "/>
<path style=" stroke:none;fill-rule:nonzero;fill:rgb(100%,100%,100%);fill-opacity:1;" d="M 27.390625 23.480469 L 27.390625 7.25 L 35.367188 7.25 L 35.367188 23.480469 L 27.390625 23.480469 "/>
<path style=" stroke:none;fill-rule:nonzero;fill:rgb(100%,100%,100%);fill-opacity:1;" d="M 38.382812 15.378906 L 38.382812 7.242188 L 50.945312 7.242188 L 50.945312 15.378906 L 38.382812 15.378906 "/>
</g>
</svg>
